client/public/img/box__dark__icon.svg

<svg width="20" height="20" viewBox="0 0 20 20" fill="none" xmlns="http://www.w3.org/2000/svg">
<g clip-path="url(#clip0_4_2272)">
<path fill-rule="evenodd" clip-rule="evenodd" d="M5.15377 17.3502C5.86777 17.3502 6.44877 17.9438 6.44877 18.6746C6.44877 19.4053 5.86777 20 5.15377 20C4.43976 20 3.85976 19.4053 3.85976 18.6746C3.85976 17.9438 4.43976 17.3502 5.15377 17.3502ZM16.4341 17.3502C17.1491 17.3502 17.7301 17.9438 17.7301 18.6746C17.7301 19.4053 17.1491 20 16.4341 20C15.7201 20 15.1401 19.4053 15.1401 18.6746C15.1401 17.9438 15.7201 17.3502 16.4341 17.3502ZM0.877948 0.00970994L2.95796 0.378168C3.29296 0.438554 3.54796 0.723086 3.57696 1.07107L3.81196 3.93788L4.68581 3.93827C4.82841 3.93833 4.9695 3.9384 5.10909 3.93846L6.7134 3.93924C6.84128 3.93931 6.96773 3.93937 7.09276 3.93944L8.86416 3.94043C8.97545 3.9405 9.0854 3.94057 9.19403 3.94064L10.4354 3.94145C10.5337 3.94151 10.6308 3.94158 10.7266 3.94165L11.8185 3.94247C11.9047 3.94254 11.9897 3.94261 12.0736 3.94268L13.0255 3.94352C13.1004 3.94359 13.1742 3.94366 13.2469 3.94373L13.8726 3.94437C13.9389 3.94444 14.0043 3.94451 14.0686 3.94458L14.7932 3.94544C14.8497 3.94551 14.9053 3.94558 14.9599 3.94566L15.5717 3.94653C15.6191 3.9466 15.6657 3.94668 15.7114 3.94675L16.1002 3.94742C16.1409 3.94749 16.1809 3.94756 16.22 3.94764L16.6531 3.94854C16.6862 3.94861 16.7186 3.94869 16.7503 3.94876L17.0169 3.94945C17.0445 3.94952 17.0714 3.9496 17.0977 3.94968L17.3835 3.9506C17.4049 3.95067 17.4257 3.95075 17.446 3.95083L17.6138 3.95153C17.6308 3.95161 17.6474 3.95169 17.6634 3.95177L17.8332 3.95271C17.8455 3.95279 17.8574 3.95287 17.8689 3.95295L17.9614 3.95367C17.9705 3.95375 17.9793 3.95383 17.9877 3.95391L18.0543 3.95464C18.0607 3.95472 18.0668 3.9548 18.0727 3.95488L18.118 3.95561C18.1223 3.9557 18.1263 3.95578 18.1301 3.95586L18.1588 3.9566C18.1614 3.95669 18.1638 3.95677 18.1661 3.95685L18.1869 3.95785C18.1881 3.95794 18.1893 3.95802 18.1904 3.95811C18.2002 3.95904 18.2016 3.95921 18.203 3.95938C18.76 4.04228 19.25 4.34012 19.584 4.79864C19.918 5.25615 20.058 5.82009 19.978 6.38506L19.029 13.0971C18.85 14.3745 17.766 15.3376 16.506 15.3376H5.58497C4.26796 15.3376 3.15296 14.2854 3.04596 12.9395L2.12995 1.78957L0.622947 1.52346C0.213946 1.44977 -0.0590552 1.05367 0.0109451 0.635065C0.0829454 0.216456 0.477947 -0.0557937 0.877948 0.00970994ZM4.4852 5.47348L3.93796 5.47313L4.54096 12.8136C4.58496 13.3786 5.03596 13.8023 5.58697 13.8023H16.504C17.025 13.8023 17.47 13.4052 17.544 12.8781L18.494 6.16501C18.516 6.00534 18.477 5.84568 18.382 5.71672C18.288 5.58673 18.15 5.50281 17.994 5.48029C17.9868 5.48057 17.9695 5.48083 17.9427 5.48107L17.8339 5.4817C17.8112 5.4818 17.7862 5.48189 17.7589 5.48197L17.1924 5.48285C17.1446 5.48289 17.0949 5.48292 17.0434 5.48294L15.7114 5.48289C15.6371 5.48286 15.5614 5.48283 15.4843 5.48279L13.9642 5.48185C13.8731 5.48178 13.781 5.48171 13.688 5.48164L12.8279 5.48093C12.7299 5.48085 12.6312 5.48076 12.5318 5.48067L11.6207 5.47985C11.5178 5.47976 11.4145 5.47966 11.3106 5.47957L10.683 5.47898C10.5777 5.47888 10.4721 5.47878 10.3663 5.47868L9.40858 5.47776C9.30179 5.47766 9.19494 5.47755 9.08809 5.47745L8.44744 5.47684C8.34083 5.47674 8.23433 5.47664 8.12802 5.47654L7.49281 5.47595C7.38747 5.47586 7.28243 5.47576 7.17776 5.47566L6.24725 5.47484C6.14532 5.47476 6.04395 5.47467 5.94318 5.47459L4.76725 5.47367C4.67236 5.4736 4.57832 5.47354 4.4852 5.47348ZM14.8979 7.72103C15.3119 7.72103 15.6479 8.06492 15.6479 8.48865C15.6479 8.91238 15.3119 9.25627 14.8979 9.25627H12.1259C11.7109 9.25627 11.3759 8.91238 11.3759 8.48865C11.3759 8.06492 11.7109 7.72103 12.1259 7.72103H14.8979Z" fill="#3D639D"/>
</g>
<defs>
<clipPath id="clip0_4_2272">
<rect width="20" height="20" fill="white"/>
</clipPath>
</defs>
</svg>

<svg xmlns="http://www.w3.org/2000/svg" width="20" height="20" fill="none" xmlns:v="https://vecta.io/nano"><g clip-path="url(#A)"><path fill-rule="evenodd" d="M5.154 17.35c.714 0 1.295.594 1.295 1.324S5.868 20 5.154 20s-1.294-.595-1.294-1.325.58-1.324 1.294-1.324zm11.28 0c.715 0 1.296.594 1.296 1.324S17.149 20 16.434 20s-1.294-.595-1.294-1.325.58-1.324 1.294-1.324zM.878.01l2.08.368c.335.06.59.345.619.693l.235 2.867h.874.423l1.604.001h.379l1.771.001h.33 1.241.291 1.092.255l.952.001h.221.626.196.725.167l.612.001h.14.389.12l.433.001h.097.267.081l.286.001h.063l.168.001h.05l.17.001h.036l.093.001h.026l.067.001.064.001.041.001.028.001a2.08 2.08 0 0 1 1.397.841c.334.458.474 1.021.394 1.586l-.949 6.712c-.179 1.277-1.263 2.241-2.523 2.241H5.585c-1.317 0-2.432-1.052-2.539-2.398L2.13 1.79.623 1.523C.214 1.45-.059 1.054.011.635A.76.76 0 0 1 .878.01zm3.607 5.464h-.547l.603 7.34c.044.565.495.989 1.046.989h10.917c.521 0 .966-.397 1.04-.924l.95-6.713a.61.61 0 0 0-.112-.448.58.58 0 0 0-.388-.236l-.051.001-.109.001h-.075l-.567.001h-.149-1.332-.227l-1.52-.001h-.276l-.86-.001h-.296l-.911-.001h-.31l-.628-.001h-.317l-.958-.001h-.32-.641-.319l-.635-.001h-.315l-.931-.001h-.304l-1.176-.001h-.282zm10.413 2.248a.76.76 0 0 1 .75.768.76.76 0 0 1-.75.768h-2.772c-.415 0-.75-.344-.75-.768s.335-.768.75-.768h2.772z" fill="#3d639d"/></g><defs><clipPath id="A"><path fill="#fff" d="M0 0h20v20H0z"/></clipPath></defs></svg>
